evolvere-2-blue-mono/apps/16/mpv.svg

<?xml version="1.0" encoding="UTF-8" standalone="no"?>
<!-- Created with Inkscape (http://www.inkscape.org/) -->

<svg
   xmlns:dc="http://purl.org/dc/elements/1.1/"
   xmlns:cc="http://creativecommons.org/ns#"
   xmlns:rdf="http://www.w3.org/1999/02/22-rdf-syntax-ns#"
   xmlns:svg="http://www.w3.org/2000/svg"
   xmlns="http://www.w3.org/2000/svg"
   xmlns:sodipodi="http://sodipodi.sourceforge.net/DTD/sodipodi-0.dtd"
   xmlns:inkscape="http://www.inkscape.org/namespaces/inkscape"
   version="1.1"
   width="16"
   height="16"
   id="svg2"
   inkscape:version="0.48.3.1 r9886"
   sodipodi:docname="mpv.svg">
  <sodipodi:namedview
     pagecolor="#ffffff"
     bordercolor="#666666"
     borderopacity="1"
     objecttolerance="10"
     gridtolerance="10"
     guidetolerance="10"
     inkscape:pageopacity="0"
     inkscape:pageshadow="2"
     inkscape:window-width="1920"
     inkscape:window-height="1023"
     id="namedview6"
     showgrid="true"
     inkscape:zoom="29.5"
     inkscape:cx="11.787656"
     inkscape:cy="8.2740798"
     inkscape:window-x="-10"
     inkscape:window-y="35"
     inkscape:window-maximized="1"
     inkscape:current-layer="svg2"
     inkscape:snap-global="true">
    <inkscape:grid
       type="xygrid"
       id="grid2982" />
  </sodipodi:namedview>
  <defs
     id="defs4" />
  <metadata
     id="metadata7">
    <rdf:RDF>
      <cc:Work
         rdf:about="">
        <dc:format>image/svg+xml</dc:format>
        <dc:type
           rdf:resource="http://purl.org/dc/dcmitype/StillImage" />
        <dc:title />
      </cc:Work>
    </rdf:RDF>
  </metadata>
  <path
     style="color:#000000;fill:#27303a;fill-opacity:0.753280819999999968;fill-rule:nonzero;stroke:none;stroke-width:1;marker:none;visibility:visible;display:inline;overflow:visible;enable-background:accumulate"
     d="M 8 1 C 4.1340068 1 1 4.1340068 1 8 C 1 11.865993 4.1340068 15 8 15 C 11.865993 15 15 11.865993 15 8 C 15 4.1340068 11.865993 1 8 1 z M 8 3 C 10.761424 3 13 5.2385763 13 8 C 13 10.761424 10.761424 13 8 13 C 5.2385763 13 3 10.761424 3 8 C 3 5.2385763 5.2385763 3 8 3 z M 6 5 L 6 11 L 12 8 L 6 5 z "
     id="path3838" />
  <path
     style="font-size:medium;font-style:normal;font-variant:normal;font-weight:normal;font-stretch:normal;text-indent:0;text-align:start;text-decoration:none;line-height:normal;letter-spacing:normal;word-spacing:normal;text-transform:none;direction:ltr;block-progression:tb;writing-mode:lr-tb;text-anchor:start;baseline-shift:baseline;color:#000000;fill:#f1f3f5;fill-opacity:0.90288714000000003;fill-rule:nonzero;stroke:none;stroke-width:2;marker:none;visibility:visible;display:inline;overflow:visible;enable-background:accumulate;font-family:Sans;-inkscape-font-specification:Sans"
     d="M 8 -0.1875 C 3.4854786 -0.1875 -0.1875 3.4854786 -0.1875 8 C -0.1875 12.514521 3.4854786 16.1875 8 16.1875 C 12.514521 16.1875 16.1875 12.514521 16.1875 8 C 16.1875 3.4854786 12.514521 -0.1875 8 -0.1875 z M 8 1 C 11.865993 1 15 4.1340068 15 8 C 15 11.865993 11.865993 15 8 15 C 4.1340068 15 1 11.865993 1 8 C 1 4.1340068 4.1340068 1 8 1 z M 5.78125 3.5625 C 5.5003855 3.7038421 5.2473736 3.876257 5 4.0625 L 5 11.9375 C 5.2473736 12.123743 5.5003855 12.296158 5.78125 12.4375 L 6.53125 12.0625 L 12.53125 9.0625 L 12.9375 8.875 C 12.988594 8.5883178 13 8.3013669 13 8 C 13 7.6986331 12.988594 7.4116821 12.9375 7.125 L 12.53125 6.9375 L 6.53125 3.9375 L 5.78125 3.5625 z M 6 5 L 12 8 L 6 11 L 6 5 z "
     id="path3025" />
</svg>

<?xml version="1.0" encoding="UTF-8"?>
<!-- Created with Inkscape (http://www.inkscape.org/) -->
<svg width="16" height="16" version="1.1" xml:space="preserve" xmlns="http://www.w3.org/2000/svg" xmlns:cc="http://creativecommons.org/ns#" xmlns:dc="http://purl.org/dc/elements/1.1/" xmlns:rdf="http://www.w3.org/1999/02/22-rdf-syntax-ns#"><defs><style id="current-color-scheme" type="text/css">.ColorScheme-Text {color:#090d11;}.ColorScheme-Background{color:#ffffff;}</style></defs><metadata><rdf:RDF><cc:Work rdf:about=""><dc:format>image/svg+xml</dc:format><dc:type rdf:resource="http://purl.org/dc/dcmitype/StillImage"/></cc:Work></rdf:RDF></metadata><path id="h" class="ColorScheme-Background" d="m8-0.1875c-4.5145 0-8.1875 3.673-8.1875 8.1875 0 4.5145 3.673 8.1875 8.1875 8.1875 4.5145 0 8.1875-3.673 8.1875-8.1875 0-4.5145-3.673-8.1875-8.1875-8.1875zm0 1.1875c3.866 0 7 3.134 7 7 0 3.866-3.134 7-7 7-3.866 0-7-3.134-7-7 0-3.866 3.134-7 7-7zm-2.2188 2.5625c-0.28086 0.14134-0.53388 0.31376-0.78125 0.5v7.875c0.24737 0.18624 0.50039 0.35866 0.78125 0.5l6.75-3.375 0.40625-0.1875c0.051094-0.28668 0.0625-0.57363 0.0625-0.875s-0.011406-0.58832-0.0625-0.875l-0.40625-0.1875-6-3zm0.21875 1.4375 6 3-6 3z" style="fill-opacity:.5;fill:currentColor"/><path id="e" class="ColorScheme-Text" d="m8 1c-3.866 0-7 3.134-7 7 0 3.866 3.134 7 7 7 3.866 0 7-3.134 7-7 0-3.866-3.134-7-7-7zm0 2c2.7614 0 5 2.2386 5 5 0 2.7614-2.2386 5-5 5-2.7614 0-5-2.2386-5-5 0-2.7614 2.2386-5 5-5zm-2 2v6l6-3z" style="fill-opacity:.75;fill:currentColor"/></svg>
